components/Common/Svg/svgs/react.svg

<svg
  width="69"
  height="61"
  viewBox="0 0 69 61"
  fill="none"
  xmlns="http://www.w3.org/2000/svg"
>
  <path
    d="M68.2822 30.3797C68.2822 25.861 62.6234 21.5786 53.9474 18.923C55.9496 10.0802 55.0597 3.04492 51.1389 0.792514C50.2351 0.264171 49.1784 0.0139036 48.0244 0.0139036V3.11444C48.664 3.11444 49.1784 3.23958 49.6094 3.47594C51.5004 4.56044 52.3207 8.68985 51.6811 14.0011C51.5282 15.308 51.2779 16.6845 50.972 18.0888C48.2469 17.4214 45.2715 16.907 42.1431 16.5733C40.2661 14.0011 38.3196 11.6653 36.3591 9.62141C40.8918 5.40857 45.1463 3.10054 48.0383 3.10054V0C44.2148 0 39.2094 2.72514 34.1484 7.45242C29.0875 2.75295 24.0821 0.0556153 20.2586 0.0556153V3.15616C23.1367 3.15616 27.4051 5.45028 31.9377 9.63531C29.9912 11.6792 28.0447 14.0011 26.1955 16.5733C23.0532 16.907 20.0778 17.4214 17.3527 18.1027C17.0329 16.7123 16.7965 15.3637 16.6297 14.0706C15.9762 8.75937 16.7826 4.62996 18.6597 3.53156C19.0768 3.28129 19.619 3.17006 20.2586 3.17006V0.0695188C19.0907 0.0695188 18.034 0.319786 17.1163 0.84813C13.2094 3.10054 12.3334 10.1219 14.3495 18.9369C5.70134 21.6065 0.0703125 25.8749 0.0703125 30.3797C0.0703125 34.8985 5.72914 39.1808 14.4051 41.8364C12.403 50.6792 13.2928 57.7145 17.2137 59.9669C18.1174 60.4953 19.1741 60.7456 20.342 60.7456C24.1655 60.7456 29.1709 58.0204 34.2319 53.2931C39.2928 57.9926 44.2982 60.6899 48.1217 60.6899C49.2896 60.6899 50.3463 60.4397 51.264 59.9113C55.1709 57.6589 56.0469 50.6375 54.0308 41.8225C62.6512 39.1669 68.2822 34.8846 68.2822 30.3797ZM50.1795 21.1059C49.6651 22.8995 49.0255 24.7487 48.3025 26.5979C47.7324 25.4856 47.1346 24.3733 46.4811 23.261C45.8415 22.1487 45.1602 21.0642 44.479 20.0075C46.4533 20.2995 48.3581 20.661 50.1795 21.1059ZM43.8116 35.9134C42.7271 37.7904 41.6148 39.5701 40.4608 41.2247C38.3891 41.4054 36.2896 41.5028 34.1763 41.5028C32.0768 41.5028 29.9773 41.4054 27.9196 41.2386C26.7655 39.584 25.6393 37.8183 24.5548 35.9551C23.4982 34.1338 22.5388 32.2845 21.6629 30.4214C22.5249 28.5583 23.4982 26.6952 24.5409 24.8738C25.6254 22.9968 26.7377 21.2171 27.8918 19.5626C29.9634 19.3819 32.0629 19.2845 34.1763 19.2845C36.2757 19.2845 38.3752 19.3819 40.4329 19.5487C41.587 21.2032 42.7132 22.969 43.7977 24.8321C44.8544 26.6535 45.8137 28.5027 46.6896 30.3658C45.8137 32.2289 44.8543 34.092 43.8116 35.9134ZM48.3025 34.1059C49.0533 35.969 49.6929 37.8322 50.2212 39.6396C48.3998 40.0846 46.4811 40.46 44.4929 40.7519C45.1741 39.6814 45.8554 38.583 46.495 37.4568C47.1346 36.3444 47.7324 35.2182 48.3025 34.1059ZM34.2041 48.9413C32.911 47.6065 31.618 46.1188 30.3388 44.4921C31.5902 44.5477 32.8693 44.5894 34.1624 44.5894C35.4693 44.5894 36.7624 44.5616 38.0276 44.4921C36.7763 46.1188 35.4832 47.6065 34.2041 48.9413ZM23.8597 40.7519C21.8853 40.46 19.9805 40.0985 18.1591 39.6535C18.6736 37.86 19.3131 36.0108 20.0361 34.1616C20.6062 35.2739 21.204 36.3862 21.8575 37.4985C22.511 38.6108 23.1784 39.6953 23.8597 40.7519ZM34.1345 11.8182C35.4276 13.153 36.7206 14.6407 37.9998 16.2674C36.7485 16.2118 35.4693 16.1701 34.1763 16.1701C32.8693 16.1701 31.5763 16.1979 30.311 16.2674C31.5623 14.6407 32.8554 13.153 34.1345 11.8182ZM23.8458 20.0075C23.1645 21.0781 22.4832 22.1765 21.8436 23.3027C21.204 24.415 20.6062 25.5273 20.0361 26.6396C19.2853 24.7765 18.6457 22.9134 18.1174 21.1059C19.9388 20.6749 21.8575 20.2995 23.8458 20.0075ZM11.2628 37.415C6.34091 35.3156 3.15695 32.5626 3.15695 30.3797C3.15695 28.1968 6.34091 25.43 11.2628 23.3444C12.4586 22.83 13.7655 22.3712 15.1142 21.9401C15.9067 24.6653 16.9495 27.5017 18.2425 30.4075C16.9634 33.2995 15.9345 36.122 15.1559 38.8332C13.7794 38.4022 12.4725 37.9295 11.2628 37.415ZM18.7431 57.2835C16.8522 56.199 16.0318 52.0696 16.6714 46.7584C16.8244 45.4514 17.0746 44.0749 17.3805 42.6707C20.1056 43.338 23.0811 43.8525 26.2094 44.1862C28.0864 46.7584 30.0329 49.0942 31.9934 51.1381C27.4607 55.3509 23.2062 57.6589 20.3142 57.6589C19.6885 57.645 19.1602 57.5199 18.7431 57.2835ZM51.7228 46.6889C52.3763 52.0001 51.5699 56.1295 49.6929 57.2279C49.2757 57.4782 48.7335 57.5894 48.0939 57.5894C45.2158 57.5894 40.9474 55.2953 36.4148 51.1103C38.3613 49.0664 40.3078 46.7445 42.157 44.1723C45.2993 43.8386 48.2747 43.3241 50.9998 42.6429C51.3196 44.0471 51.5699 45.3958 51.7228 46.6889ZM57.0758 37.415C55.88 37.9295 54.5731 38.3883 53.2244 38.8193C52.4319 36.0942 51.3891 33.2578 50.0961 30.3519C51.3752 27.4599 52.4041 24.6375 53.1827 21.9262C54.5592 22.3573 55.8661 22.83 57.0897 23.3444C62.0116 25.4439 65.1956 28.1968 65.1956 30.3797C65.1817 32.5626 61.9977 35.3295 57.0758 37.415Z"
    fill="#6A6A6A"
  ></path>
  <path
    d="M34.1626 36.7339C37.6718 36.7339 40.5166 33.8891 40.5166 30.3798C40.5166 26.8706 37.6718 24.0258 34.1626 24.0258C30.6534 24.0258 27.8086 26.8706 27.8086 30.3798C27.8086 33.8891 30.6534 36.7339 34.1626 36.7339Z"
    fill="#6A6A6A"
  ></path>
</svg>

<svg width="69" height="61" viewBox="0 0 69 61" fill="none" xmlns="http://www.w3.org/2000/svg"><path d="M68.282 30.38c0-4.519-5.659-8.801-14.335-11.457C55.95 10.08 55.06 3.045 51.14.793c-.904-.529-1.96-.78-3.115-.78v3.101c.64 0 1.154.126 1.585.362C51.5 4.56 52.321 8.69 51.681 14a42.788 42.788 0 0 1-.709 4.088c-2.725-.668-5.7-1.182-8.829-1.516-1.877-2.572-3.823-4.908-5.784-6.952 4.533-4.212 8.787-6.52 11.68-6.52V0c-3.824 0-8.83 2.725-13.89 7.452C29.086 2.753 24.081.056 20.258.056v3.1c2.878 0 7.146 2.294 11.679 6.48a65.676 65.676 0 0 0-5.742 6.937c-3.143.334-6.118.848-8.843 1.53a41.926 41.926 0 0 1-.723-4.032c-.654-5.312.153-9.441 2.03-10.54.417-.25.959-.36 1.599-.36V.07c-1.168 0-2.225.25-3.143.778-3.907 2.253-4.783 9.274-2.766 18.089C5.7 21.607.07 25.875.07 30.38c0 4.518 5.66 8.8 14.335 11.456-2.002 8.843-1.112 15.879 2.809 18.13.903.53 1.96.78 3.128.78 3.824 0 8.829-2.726 13.89-7.453 5.06 4.7 10.066 7.397 13.89 7.397 1.168 0 2.224-.25 3.142-.779 3.907-2.252 4.783-9.273 2.767-18.089 8.62-2.655 14.251-6.937 14.251-11.442ZM50.18 21.106a62.604 62.604 0 0 1-1.877 5.492 65.818 65.818 0 0 0-1.822-3.337 75.35 75.35 0 0 0-2.002-3.253c1.974.291 3.88.653 5.7 1.098Zm-6.368 14.807a74.093 74.093 0 0 1-3.351 5.312c-2.072.18-4.171.278-6.285.278-2.1 0-4.199-.098-6.256-.264a76.605 76.605 0 0 1-3.365-5.284 72.423 72.423 0 0 1-2.892-5.534 72.522 72.522 0 0 1 2.878-5.547 74.034 74.034 0 0 1 3.35-5.311 72.362 72.362 0 0 1 6.285-.278c2.1 0 4.2.097 6.257.264a76.602 76.602 0 0 1 3.365 5.283 72.406 72.406 0 0 1 2.892 5.534 77.868 77.868 0 0 1-2.878 5.547Zm4.49-1.807a59.583 59.583 0 0 1 1.92 5.534 62.35 62.35 0 0 1-5.73 1.112 76.867 76.867 0 0 0 2.003-3.295 79.062 79.062 0 0 0 1.808-3.351ZM34.205 48.94a57.336 57.336 0 0 1-3.865-4.449c1.251.056 2.53.097 3.823.097 1.307 0 2.6-.027 3.866-.097a54.284 54.284 0 0 1-3.824 4.45Zm-10.344-8.19a62.682 62.682 0 0 1-5.7-1.097 62.647 62.647 0 0 1 1.876-5.492 65.818 65.818 0 0 0 1.822 3.337 92.016 92.016 0 0 0 2.002 3.253Zm10.275-28.933A57.336 57.336 0 0 1 38 16.268a86.092 86.092 0 0 0-3.824-.098c-1.307 0-2.6.028-3.865.097a54.284 54.284 0 0 1 3.824-4.449Zm-10.29 8.19a76.833 76.833 0 0 0-3.809 6.632 59.573 59.573 0 0 1-1.919-5.534 67.535 67.535 0 0 1 5.729-1.099ZM11.264 37.415c-4.922-2.1-8.106-4.852-8.106-7.035s3.184-4.95 8.106-7.036c1.196-.514 2.502-.973 3.851-1.404.793 2.725 1.835 5.562 3.128 8.467-1.279 2.893-2.308 5.715-3.086 8.426a42.22 42.22 0 0 1-3.893-1.418Zm7.48 19.868c-1.89-1.084-2.711-5.213-2.072-10.525.153-1.307.404-2.683.71-4.087 2.725.667 5.7 1.181 8.828 1.515 1.877 2.572 3.824 4.908 5.784 6.952-4.532 4.213-8.787 6.52-11.679 6.52-.625-.013-1.154-.138-1.57-.375Zm32.98-10.594c.653 5.311-.153 9.44-2.03 10.539-.417.25-.96.361-1.6.361-2.877 0-7.146-2.294-11.678-6.479a65.677 65.677 0 0 0 5.742-6.938c3.142-.333 6.118-.848 8.843-1.53.32 1.405.57 2.754.723 4.047Zm5.353-9.274c-1.196.514-2.503.973-3.852 1.404-.792-2.725-1.835-5.561-3.128-8.467 1.28-2.892 2.308-5.715 3.087-8.426 1.376.431 2.683.904 3.907 1.418 4.922 2.1 8.106 4.853 8.106 7.036-.014 2.183-3.198 4.95-8.12 7.035Z" fill="#6A6A6A"/><path d="M34.163 36.734a6.354 6.354 0 1 0 0-12.708 6.354 6.354 0 0 0 0 12.708Z" fill="#6A6A6A"/></svg>
